/* XPM */
static char * image[] = {
"22 30 4 1",
". c #f3f6f8",
"b c #e6edf1",
"h c #f3f6f8",
"x c #34566b",
"bbbbbbbbbbbbbbbbbbbbbb",
"......................",
"......................",
"......................",
"......................",
"..hhhhhhhhhhhhhhhhhh..",
"..hhhhhhhhhhhhhhhhhh..",
"..hhhhhhhhhhhhhhhhhh..",
"..hhhhhhhhhhhhhhhhhh..",
"..hhhhhhhhhhhhhhhhhh..",
"..hhhhhhhhhhhhhhhhhh..",
"..hhhhhhhhhhhhhhhhhh..",
"..hhhhhhhhhhhhhhhhhh..",
"..hhhhhhhhhhhhhhhhhh..",
"..hhhhhhhhhhhhhhhhhh..",
"..hhhhhhhhhhhhhhhhhh..",
"..hhhhhhhhhhhhhhhhhh..",
"..hhhhhhhhhhhhhhhhhh..",
"..hhhhxxxxxxxxxxhhhh..",
"..hhhhhhhhhhhhhhhhhh..",
"..hhhhhhhhhhhhhhhhhh..",
"..hhhhhhhhhhhhhhhhhh..",
"..hhhhhhhhhhhhhhhhhh..",
"..hhhhhhhhhhhhhhhhhh..",
"..hhhhhhhhhhhhhhhhhh..",
"......................",
"......................",
"......................",
"......................",
"......................"};
