/* XPM */
static char * image[] = {
"22 30 4 1",
". c #f3f6f8",
"b c #d3e0e7",
"h c #f3f6f8",
"x c #34566b",
"bbbbbbbbbbbbbbbbbbbbbb",
"......................",
"......................",
"......................",
"......................",
"..hhhhhhhhhhhhhhhhhh..",
"..hhhhhhhhhhhhhhhhhh..",
"..hhhhhhhhhhhhhhhhhh..",
"..hhhhhhhhhhhhhhhhhh..",
"..hhhhhhhhhhhhhhhhhh..",
"..hhhhxxxxxxxxxxhhhh..",
"..hhhhxhhhhhhhhxhhhh..",
"..hhhhxhhhhhhhhxhhhh..",
"..hhhhxhhhhhhhhxhhhh..",
"..hhhhxhhhhhhhhxhhhh..",
"..hhhhxhhhhhhhhxhhhh..",
"..hhhhxhhhhhhhhxhhhh..",
"..hhhhxhhhhhhhhxhhhh..",
"..hhhhxhhhhhhhhxhhhh..",
"..hhhhxxxxxxxxxxhhhh..",
"..hhhhhhhhhhhhhhhhhh..",
"..hhhhhhhhhhhhhhhhhh..",
"..hhhhhhhhhhhhhhhhhh..",
"..hhhhhhhhhhhhhhhhhh..",
"..hhhhhhhhhhhhhhhhhh..",
"......................",
"......................",
"......................",
"......................",
"......................"};
