/* XPM */
static char * image[] = {
"22 30 3 1",
". c #f3f6f8",
"b c #e6edf1",
"h c #d9f2f8",
"bbbbbbbbbbbbbbbbbbbbbb",
"......................",
"......................",
"......................",
"......................",
"..hhhhhhhhhhhhhhhhhh..",
"..hhhhhhhhhhhhhhhhhh..",
"..hhhhhhhhhhhhhhhhhh..",
"..hhhhhhhhhhhhhhhhhh..",
"..hhhhhhhhhhhhhhhhhh..",
"..hhhhhhhhhhhhhhhhhh..",
"..hhhhhhhhhhhhhhhhhh..",
"..hhhhhhhhhhhhhhhhhh..",
"..hhhhhhhhhhhhhhhhhh..",
"..hhhhhhhhhhhhhhhhhh..",
"..hhhhhhhhhhhhhhhhhh..",
"..hhhhhhhhhhhhhhhhhh..",
"..hhhhhhhhhhhhhhhhhh..",
"..hhhhhhhhhhhhhhhhhh..",
"..hhhhhhhhhhhhhhhhhh..",
"..hhhhhhhhhhhhhhhhhh..",
"..hhhhhhhhhhhhhhhhhh..",
"..hhhhhhhhhhhhhhhhhh..",
"..hhhhhhhhhhhhhhhhhh..",
"..hhhhhhhhhhhhhhhhhh..",
"......................",
"......................",
"......................",
"......................",
"......................"};
