/* XPM */
static char * image[] = {
"22 30 3 1",
". c #f3f6f8",
"b c #eaf0f3",
"h c #f3f6f8",
"bbbbbbbbbbbbbbbbbbbbbb",
"......................",
"......................",
"......................",
"......................",
"..hhhhhhhhhhhhhhhhhh..",
"..hhhhhhhhhhhhhhhhhh..",
"..hhhhhhhhhhhhhhhhhh..",
"..hhhhhhhhhhhhhhhhhh..",
"..hhhhhhhhhhhhhhhhhh..",
"..hhhhhhhhhhhhhhhhhh..",
"..hhhhhhhhhhhhhhhhhh..",
"..hhhhhhhhhhhhhhhhhh..",
"..hhhhhhhhhhhhhhhhhh..",
"..hhhhhhhhhhhhhhhhhh..",
"..hhhhhhhhhhhhhhhhhh..",
"..hhhhhhhhhhhhhhhhhh..",
"..hhhhhhhhhhhhhhhhhh..",
"..hhhhhhhhhhhhhhhhhh..",
"..hhhhhhhhhhhhhhhhhh..",
"..hhhhhhhhhhhhhhhhhh..",
"..hhhhhhhhhhhhhhhhhh..",
"..hhhhhhhhhhhhhhhhhh..",
"..hhhhhhhhhhhhhhhhhh..",
"..hhhhhhhhhhhhhhhhhh..",
"......................",
"......................",
"......................",
"......................",
"......................"};
