/* XPM */
static char * image[] = {
"22 30 4 1",
". c #f3f6f8",
"b c #eaf0f3",
"h c #f3f6f8",
"x c #8195a3",
"bbbbbbbbbbbbbbbbbbbbbb",
"......................",
"......................",
"......................",
"......................",
"..hhhhhhhhhhhhhhhhhh..",
"..hhhhhhhhhhhhhhhhhh..",
"..hhhhhhhhhhhhhhhhhh..",
"..hhhhhhhhhhhhhhhhhh..",
"..hhhhhhhhhhhhhhhhhh..",
"..hhhhhhhhhhhhhhhhhh..",
"..hhhhhhhhhhhhhhhhhh..",
"..hhhhhhhhxhhhhhhhhh..",
"..hhhhhhhxhxhhhhhhhh..",
"..hhhhhhxhhhxhhhhhhh..",
"..hhhhhxhhhhhxhhhhhh..",
"..hhhhxhhhhhhhxhhhhh..",
"..hhhhhhhhhhhhhxhhhh..",
"..hhhhhhhhhhhhhhhhhh..",
"..hhhhhhhhhhhhhhhhhh..",
"..hhhhhhhhhhhhhhhhhh..",
"..hhhhhhhhhhhhhhhhhh..",
"..hhhhhhhhhhhhhhhhhh..",
"..hhhhhhhhhhhhhhhhhh..",
"..hhhhhhhhhhhhhhhhhh..",
"......................",
"......................",
"......................",
"......................",
"......................"};
