/* XPM */
static char * image[] = {
"24 32 3 1",
". c #101b2a",
"b c #0e1826",
"i c #98aabd",
"bbbbbbbbbbbbbbbbbbbbbbbb",
"........................",
"........................",
"........................",
"........................",
"........................",
"........................",
"........................",
"........................",
"........................",
"........................",
"........................",
"........i......i........",
".........i....i.........",
"..........i..i..........",
"...........ii...........",
"...........ii...........",
"..........i..i..........",
".........i....i.........",
"........i......i........",
"........................",
"........................",
"........................",
"........................",
"........................",
"........................",
"........................",
"........................",
"........................",
"........................",
"........................",
"bbbbbbbbbbbbbbbbbbbbbbbb"
};
