/* XPM */
static char * image[] = {
"24 32 4 1",
". c #101b2a",
"b c #1b2b3c",
"h c #1c3045",
"i c #ff3dfb",
"bbbbbbbbbbbbbbbbbbbbbbbb",
"........................",
"........................",
"........................",
"........................",
"..hhhhhhhhhhhhhhhhhhhh..",
"..hhhhhhhhhhhhhhhhhhhh..",
"..hhhhhhhhhhhhhhhhhhhh..",
"..hhhhhhhhhhhhhhhhhhhh..",
"..hhhhhhhhhhhhhhhhhhhh..",
"..hhhhhhhhhhhhhhhhhhhh..",
"..hhhhhhhhhhhhhhhhhhhh..",
"..hhhhhhihhhhhhihhhhhh..",
"..hhhhhhhihhhhihhhhhhh..",
"..hhhhhhhhihhihhhhhhhh..",
"..hhhhhhhhhiihhhhhhhhh..",
"..hhhhhhhhhiihhhhhhhhh..",
"..hhhhhhhhihhihhhhhhhh..",
"..hhhhhhhihhhhihhhhhhh..",
"..hhhhhhihhhhhhihhhhhh..",
"..hhhhhhhhhhhhhhhhhhhh..",
"..hhhhhhhhhhhhhhhhhhhh..",
"..hhhhhhhhhhhhhhhhhhhh..",
"..hhhhhhhhhhhhhhhhhhhh..",
"..hhhhhhhhhhhhhhhhhhhh..",
"..hhhhhhhhhhhhhhhhhhhh..",
"..hhhhhhhhhhhhhhhhhhhh..",
"........................",
"........................",
"........................",
"........................",
"bbbbbbbbbbbbbbbbbbbbbbbb"
};
