/* XPM */
static char * image[] = {
"24 32 3 1",
". c #101b2a",
"b c #0e1826",
"i c #98aabd",
"bbbbbbbbbbbbbbbbbbbbbbbb",
"........................",
"........................",
"........................",
"........................",
"........................",
"........................",
"........................",
"........................",
"........................",
"........................",
"........................",
"........iiiiiiii........",
"........i......i........",
"........i......i........",
"........i......i........",
"........i......i........",
"........i......i........",
"........i......i........",
"........iiiiiiii........",
"........................",
"........................",
"........................",
"........................",
"........................",
"........................",
"........................",
"........................",
"........................",
"........................",
"........................",
"bbbbbbbbbbbbbbbbbbbbbbbb"
};
