/* XPM */
static char * image[] = {
"24 32 4 1",
". c #101b2a",
"b c #1b2b3c",
"h c #1c3045",
"i c #00abff",
"bbbbbbbbbbbbbbbbbbbbbbbb",
"........................",
"........................",
"........................",
"........................",
"..hhhhhhhhhhhhhhhhhhhh..",
"..hhhhhhhhhhhhhhhhhhhh..",
"..hhhhhhhhhhhhhhhhhhhh..",
"..hhhhhhhhhhhhhhhhhhhh..",
"..hhhhhhhhhhhhhhhhhhhh..",
"..hhhhhhhhhhhhhhhhhhhh..",
"..hhhhhhhhhhhhhhhhhhhh..",
"..hhhhhhiiiiiiiihhhhhh..",
"..hhhhhhihhhhhhihhhhhh..",
"..hhhhhhihhhhhhihhhhhh..",
"..hhhhhhihhhhhhihhhhhh..",
"..hhhhhhihhhhhhihhhhhh..",
"..hhhhhhihhhhhhihhhhhh..",
"..hhhhhhihhhhhhihhhhhh..",
"..hhhhhhiiiiiiiihhhhhh..",
"..hhhhhhhhhhhhhhhhhhhh..",
"..hhhhhhhhhhhhhhhhhhhh..",
"..hhhhhhhhhhhhhhhhhhhh..",
"..hhhhhhhhhhhhhhhhhhhh..",
"..hhhhhhhhhhhhhhhhhhhh..",
"..hhhhhhhhhhhhhhhhhhhh..",
"..hhhhhhhhhhhhhhhhhhhh..",
"........................",
"........................",
"........................",
"........................",
"bbbbbbbbbbbbbbbbbbbbbbbb"
};
