/* XPM */
static char * image[] = {
"24 32 4 1",
". c #101b2a",
"b c #0e1826",
"h c #123b55",
"i c #00abff",
"bbbbbbbbbbbbbbbbbbbbbbbb",
"........................",
"........................",
"........................",
"........................",
"..hhhhhhhhhhhhhhhhhhhh..",
"..hhhhhhhhhhhhhhhhhhhh..",
"..hhhhhhhhhhhhhhhhhhhh..",
"..hhhhhhhhhhhhhhhhhhhh..",
"..hhhhhhhhhhhhhhhhhhhh..",
"..hhhhhhhhhhhhhhhhhhhh..",
"..hhhhhhhhhhhhhhhhhhhh..",
"..hhhhhhiiiiiiiihhhhhh..",
"..hhhhhhihhhhhhihhhhhh..",
"..hhhhhhihhhhhhihhhhhh..",
"..hhhhhhihhhhhhihhhhhh..",
"..hhhhhhihhhhhhihhhhhh..",
"..hhhhhhihhhhhhihhhhhh..",
"..hhhhhhihhhhhhihhhhhh..",
"..hhhhhhiiiiiiiihhhhhh..",
"..hhhhhhhhhhhhhhhhhhhh..",
"..hhhhhhhhhhhhhhhhhhhh..",
"..hhhhhhhhhhhhhhhhhhhh..",
"..hhhhhhhhhhhhhhhhhhhh..",
"..hhhhhhhhhhhhhhhhhhhh..",
"..hhhhhhhhhhhhhhhhhhhh..",
"..hhhhhhhhhhhhhhhhhhhh..",
"........................",
"........................",
"........................",
"........................",
"bbbbbbbbbbbbbbbbbbbbbbbb"
};
