/* XPM */
static char * image[] = {
"24 32 3 1",
". c #101b2a",
"b c #1b2b3c",
"i c #98aabd",
"bbbbbbbbbbbbbbbbbbbbbbbb",
"........................",
"........................",
"........................",
"........................",
"........................",
"........................",
"........................",
"........................",
"........................",
"........................",
"..........iiiiiiii......",
".................i......",
".................i......",
"........iiiiiii..i......",
"........i.....i..i......",
"........i.....i..i......",
"........i.....i..i......",
"........i.....i.........",
"........i.....i.........",
"........iiiiiii.........",
"........................",
"........................",
"........................",
"........................",
"........................",
"........................",
"........................",
"........................",
"........................",
"........................",
"bbbbbbbbbbbbbbbbbbbbbbbb"
};
