/* XPM */
static char * image[] = {
"24 32 3 1",
". c #101b2a",
"b c #0e1826",
"h c #1c3045",
"bbbbbbbbbbbbbbbbbbbbbbbb",
"........................",
"........................",
"........................",
"........................",
"..hhhhhhhhhhhhhhhhhhhh..",
"..hhhhhhhhhhhhhhhhhhhh..",
"..hhhhhhhhhhhhhhhhhhhh..",
"..hhhhhhhhhhhhhhhhhhhh..",
"..hhhhhhhhhhhhhhhhhhhh..",
"..hhhhhhhhhhhhhhhhhhhh..",
"..hhhhhhhhhhhhhhhhhhhh..",
"..hhhhhhhhhhhhhhhhhhhh..",
"..hhhhhhhhhhhhhhhhhhhh..",
"..hhhhhhhhhhhhhhhhhhhh..",
"..hhhhhhhhhhhhhhhhhhhh..",
"..hhhhhhhhhhhhhhhhhhhh..",
"..hhhhhhhhhhhhhhhhhhhh..",
"..hhhhhhhhhhhhhhhhhhhh..",
"..hhhhhhhhhhhhhhhhhhhh..",
"..hhhhhhhhhhhhhhhhhhhh..",
"..hhhhhhhhhhhhhhhhhhhh..",
"..hhhhhhhhhhhhhhhhhhhh..",
"..hhhhhhhhhhhhhhhhhhhh..",
"..hhhhhhhhhhhhhhhhhhhh..",
"..hhhhhhhhhhhhhhhhhhhh..",
"..hhhhhhhhhhhhhhhhhhhh..",
"........................",
"........................",
"........................",
"........................",
"bbbbbbbbbbbbbbbbbbbbbbbb"
};
