/* XPM */
static char * image[] = {
"24 32 4 1",
". c #101b2a",
"b c #1b2b3c",
"h c #123b55",
"i c #00abff",
"bbbbbbbbbbbbbbbbbbbbbbbb",
"........................",
"........................",
"........................",
"........................",
"..hhhhhhhhhhhhhhhhhhhh..",
"..hhhhhhhhhhhhhhhhhhhh..",
"..hhhhhhhhhhhhhhhhhhhh..",
"..hhhhhhhhhhhhhhhhhhhh..",
"..hhhhhhhhhhhhhhhhhhhh..",
"..hhhhhhhhhhhhhhhhhhhh..",
"..hhhhhhhhhhihhhhhhhhh..",
"..hhhhhhhhhihihhhhhhhh..",
"..hhhhhhhhihhhihhhhhhh..",
"..hhhhhhhihhhhhihhhhhh..",
"..hhhhhhihiiiiihihhhhh..",
"..hhhhhhhihhhhhihhhhhh..",
"..hhhhhhhhihhhihhhhhhh..",
"..hhhhhhhhhihihhhhhhhh..",
"..hhhhhhhhhhihhhhhhhhh..",
"..hhhhhhhhhhhhhhhhhhhh..",
"..hhhhhhhhhhhhhhhhhhhh..",
"..hhhhhhhhhhhhhhhhhhhh..",
"..hhhhhhhhhhhhhhhhhhhh..",
"..hhhhhhhhhhhhhhhhhhhh..",
"..hhhhhhhhhhhhhhhhhhhh..",
"..hhhhhhhhhhhhhhhhhhhh..",
"........................",
"........................",
"........................",
"........................",
"bbbbbbbbbbbbbbbbbbbbbbbb"
};
